public/assets/icons/profile-placeholder.svg

<?xml version="1.0" encoding="UTF-8" standalone="no"?>
<svg
   width="54"
   height="54"
   viewBox="0 0 54 54"
   fill="none"
   version="1.1"
   id="svg13"
   sodipodi:docname="profile-placeholder.svg"
   inkscape:version="1.1.2 (0a00cf5339, 2022-02-04)"
   xmlns:inkscape="http://www.inkscape.org/namespaces/inkscape"
   xmlns:sodipodi="http://sodipodi.sourceforge.net/DTD/sodipodi-0.dtd"
   xmlns="http://www.w3.org/2000/svg"
   xmlns:svg="http://www.w3.org/2000/svg">
  <sodipodi:namedview
     id="namedview15"
     pagecolor="#ffffff"
     bordercolor="#666666"
     borderopacity="1.0"
     inkscape:pageshadow="2"
     inkscape:pageopacity="0.0"
     inkscape:pagecheckerboard="0"
     showgrid="false"
     inkscape:zoom="5.3796654"
     inkscape:cx="-6.3200957"
     inkscape:cy="33.738158"
     inkscape:window-width="1440"
     inkscape:window-height="836"
     inkscape:window-x="0"
     inkscape:window-y="0"
     inkscape:window-maximized="1"
     inkscape:current-layer="svg13" />
  <g
     id="g894">
    <ellipse
       cx="27.0338"
       cy="26.9662"
       rx="26.4937"
       ry="25.953699"
       fill="#ffffff"
       id="ellipse2" />
    <path
       d="M 27,0.00146484 C 12.0899,0.00146484 0,12.089 0,27.0003 0,41.9116 12.0887,53.9991 27,53.9991 41.9125,53.9991 54,41.9116 54,27.0003 54,12.089 41.9125,0.00146484 27,0.00146484 Z M 27,8.07443 c 4.9337,0 8.9316,3.99907 8.9316,8.93037 0,4.9325 -3.9979,8.9305 -8.9316,8.9305 -4.9313,0 -8.9292,-3.998 -8.9292,-8.9305 0,-4.9313 3.9979,-8.93037 8.9292,-8.93037 z M 26.9941,46.9401 c -4.9207,0 -9.4274,-1.792 -12.9035,-4.7581 -0.8468,-0.7223 -1.3354,-1.7813 -1.3354,-2.8926 0,-5.0013 4.0478,-9.004 9.0502,-9.004 H 32.197 c 5.0036,0 9.0359,4.0027 9.0359,9.004 0,1.1124 -0.4862,2.1692 -1.3342,2.8914 -3.4749,2.9673 -7.9828,4.7593 -12.9046,4.7593 z"
       fill="#877eff"
       id="path4"
       style="fill:#000000" />
  </g>
  <defs
     id="defs11">
    <clipPath
       id="clip0_1574_2829">
      <rect
         width="54"
         height="54"
         fill="white"
         id="rect8" />
    </clipPath>
  </defs>
</svg>

<svg width="54" height="54" viewBox="0 0 54 54" fill="none" xmlns="http://www.w3.org/2000/svg">
<g clip-path="url(#clip0_1574_2829)">
<ellipse cx="27.0338" cy="26.9662" rx="26.4937" ry="25.9537" fill="white"/>
<path d="M27 0.00146484C12.0899 0.00146484 0 12.089 0 27.0003C0 41.9116 12.0887 53.9991 27 53.9991C41.9125 53.9991 54 41.9116 54 27.0003C54 12.089 41.9125 0.00146484 27 0.00146484ZM27 8.07443C31.9337 8.07443 35.9316 12.0735 35.9316 17.0048C35.9316 21.9373 31.9337 25.9353 27 25.9353C22.0687 25.9353 18.0708 21.9373 18.0708 17.0048C18.0708 12.0735 22.0687 8.07443 27 8.07443ZM26.9941 46.9401C22.0734 46.9401 17.5667 45.1481 14.0906 42.182C13.2438 41.4597 12.7552 40.4007 12.7552 39.2894C12.7552 34.2881 16.803 30.2854 21.8054 30.2854H32.197C37.2006 30.2854 41.2329 34.2881 41.2329 39.2894C41.2329 40.4018 40.7467 41.4586 39.8987 42.1808C36.4238 45.1481 31.9159 46.9401 26.9941 46.9401Z" fill="#877EFF"/>
</g>
<defs>
<clipPath id="clip0_1574_2829">
<rect width="54" height="54" fill="white"/>
</clipPath>
</defs>
</svg>
